X:12501
T:The Rights of Man
R:Hornpipe
B:Tuneworks Tunebook (https://www.tuneworks.co.uk/)
G:Tuneworks
Z:Jon Warbrick <jon.warbrick@googlemail.com>
M:4/4
L:1/8
K:G
|: GA | "Em"(3BcB (3ABA (3GAG (3 FGF | EFGA B2 ef | "Em"gfed edBd | 
"D"cBAG A2GA | "Em"(3BcB (3ABA (3 GAG (3FGF | 
EFGA B2 ef | "Em"gfed "D"Bgfg | "D"e2 E2 E2 :|
|: ga | "Em"babg efga | babg egfe | "D"d^cde fefg | afdf a2 gf | 
"C"edef gfga | bgaf gfef | "D"gfed Bgfg | "Em"e2 E2 E2 :|